pokemon/_inc/system.svg

<svg xmlns="http://www.w3.org/2000/svg"><g fill="#fff"><path d="m552.813 65.277-4.485 18.48-4.14-20.463-55.452-12.207.39 30.834 8.355 1.872-.603 5.562c-.108-.042-.174-.108-.234-.156-10.359-5.466-23.202-6.024-35.289-1.461-4.053 1.551-7.818 3.591-11.232 6.069l-8.364-52.806h-36.879l-1.014 6.072h-38.814l-4.434 27.147-3.219-3.978c-9.405-11.553-23.04-17.919-38.145-18.234l32.955-17.715-22.98-34.293-41.52 47.841 7.167 8.739c-6.492 2.652-12.162 6.309-16.86 10.728l-35.601-31.584-12.447 23.856.48-22.926-55.659 17.781 1.428 29.901 9.468-2.457 1.401 15.156c-10.821-4.86-23.826-4.74-35.886.357-3.576 1.557-6.906 3.471-9.978 5.697 2.085-9.231 1.593-18.333-1.926-26.451-4.155-9.591-11.466-17.517-20.427-22.518-6.285-4.185-13.773-6.795-21.612-7.68-19.257-3.369-42.384.09-65.145 9.786-8.37 3.57-16.173 7.62-23.214 12.105l-8.898 5.643 5.373 9.072 16.677 28.185s5.103 8.637 5.136 8.631l9.018-4.431 1.257-.579 41.439 92.484 3.996 8.889 9.252-2.982 22.422-7.182 9.825-3.12-2.592-10.002-11.907-45.711c3.423-2.535 6.621-5.226 9.573-8.04-.666 5.463-.318 10.992 1.188 16.284 3.111 11.082 10.368 19.833 20.439 24.684 10.875 5.226 24.144 5.241 36.42.033 6.159-2.61 11.634-6.423 16.272-10.959l1.692 18.204 39.264-5.781-.063-35.205 82.044 40.548v-39.261c3.291-.276 6.651-.795 10.029-1.626 9.036-2.181 16.77-5.175 23.64-9.291l-3.447 21.084 44.235 6.963 2.427-15.918 11.556 21.342 7.062-13.608 2.58 22.344 50.154 8.841-2.661-16.872c6.867.777 14.103-.144 21.093-2.781 1.656-.612 3.288-1.359 4.854-2.157l-1.998 17.952 33.378 4.71.249 13.689 34.806 10.926 45.318-136.587zm-195.963 20.298 2.298-2.448-2.778 17.223-7.251-6.531zm-29.394-70.347 12.153 16.509-34.743 17.223-2.4-3.648zm-230.046 127.29 13.86 53.184-22.434 7.164-46.035-102.807c-2.502 1.317-7.128 3.525-11.373 5.607l-16.671-28.161c6.63-4.233 13.899-7.983 21.633-11.253 21.702-9.228 42.408-11.982 58.968-9.057 5.859.66 12.063 2.388 17.496 5.991 7.452 4.2 13.152 10.173 16.44 17.781 8.019 18.528-5.376 45.192-31.884 61.551zm103.14-9.465c-.258 7.92-3.168 15.852-8.034 22.566-4.632 6.489-11.1 11.847-18.711 15.123-19.464 8.247-38.925 0-44.124-18.477-5.037-17.865 6.681-39.135 25.539-47.259 12.045-5.085 24.129-3.879 32.784 2.004 5.346 3.624 9.423 9.078 11.328 15.909.24.726.396 1.488.558 2.232.543 2.604.762 5.271.66 7.902zm105.894 37.599-81.408-40.713.147 42.657-21.06 2.874-1.467-17.586c6.501-11.148 8.88-24.288 5.487-36.333-1.863-6.624-5.304-12.372-9.981-16.977l-3.021-35.853-9.456 2.451-.417-9.063 33.816-10.071 2.073 34.878 24.915-35.001 24.354 23.193-34.059 35.883 31.998 12.657c3.573 6.774 9.027 12.528 15.867 16.767 6.615 4.083 14.19 6.498 22.206 7.29zm-42.27-58.986-11.322-4.371 10.554-10.257c-.45 4.707-.219 9.633.768 14.628zm88.59 10.665c-7.812 6.462-16.716 10.674-28.482 13.518-2.571.588-5.091 1.017-7.557 1.236-18.675 1.833-34.341-6.741-40.287-20.649-.741-1.686-1.311-3.39-1.743-5.208-2.751-11.715-.402-22.185 5.385-30.387 1.668-2.394 3.645-4.575 5.865-6.537 5.451-4.866 12.411-8.4 20.322-10.302 17.79-4.29 33.456 1.14 43.062 12.927l-33.9 36.081c2.298.435 5.955-.168 8.652-.813 8.073-1.971 12.591-6.255 16.572-10.926l13.548 12.189 4.104 3.708c-1.779 1.839-3.648 3.576-5.541 5.163zm71.919 48.153-7.374-48.849-10.428 26.949-15.615-33.681h-.177l-6.171 39.003-26.025-4.53 3.66-21.765c.981-.921 1.947-1.848 2.898-2.826l8.436-8.685-8.199-7.344 8.712-51.831h26.256l6.573 35.88 7.365-41.583h18.783l7.794 50.661c-9.918 11.298-14.736 26.487-11.421 40.383 2.562 10.77 9.183 19.446 18.672 24.513.954.48 1.944.957 2.964 1.368l.993 6.567zm64.854-15.915c-2.868 2.043-6.027 3.78-9.423 5.031-6.702 2.553-13.371 3.084-19.311 1.905-4.14-.819-7.917-2.433-11.202-4.77-5.223-3.78-9.072-9.36-10.767-16.368-1.977-8.421-.156-17.412 4.374-25.287 2.259-3.849 5.154-7.467 8.583-10.584 3.822-3.426 8.253-6.234 13.185-8.13 11.475-4.281 22.794-2.805 30.762 2.925 2.931 2.076 5.364 4.719 7.281 7.794 1.452 2.427 2.583 5.103 3.267 8.022 2.439 10.113-.465 20.94-6.846 29.664-2.73 3.72-6.06 7.062-9.903 9.798zm58.602 46.041-19.245-5.733-1.677-70.953-9.678 54.735-20.997-3.351 1.503-15.759c13.71-11.586 20.979-29.859 16.995-46.422-1.749-7.332-5.52-13.716-10.836-18.573l1.773-18.585-7.938-2.112.531-9.924 36.171 7.269 12.165 57.678 12.474-51.711 27.519 6.081z"/><path d="m489.996 109.038c.216.855.327 1.704.3 2.604-.237 5.388-5.301 9.546-11.337 9.264-6.033-.207-10.773-4.788-10.536-10.161.204-5.037 4.692-9.024 10.236-9.279-1.053-.237-2.154-.363-3.3-.402-10.098-.435-18.354 6.717-18.702 15.621-.387 9.525 7.245 17.289 17.184 17.721 10.113.402 18.363-6.774 18.765-16.251.117-3.288-.852-6.438-2.61-9.117"/><path d="m183.621 119.916c0 5.409-4.92 9.744-10.944 9.744-6.042 0-10.944-4.338-10.944-9.744 0-5.043 4.311-9.201 9.84-9.681-1.059-.195-2.163-.306-3.3-.306-10.095 0-18.063 7.491-18.063 16.407 0 9.519 7.968 16.983 17.901 16.983 10.107 0 18.063-7.47 18.063-16.983 0-3.291-1.086-6.396-2.958-8.952.252.771.405 1.623.405 2.532"/></g><path d="m335.766 106.185c-.15.135-.288.3-.405.471.156-.141.306-.264.468-.399z" fill="#7d7f68"/><path d="m252.852 107.295.117.048z" fill="#7d7f68"/><path d="m318.657 83.649c0 5.412-4.92 9.744-10.947 9.744-6.042 0-10.941-4.335-10.941-9.744 0-5.04 4.311-9.198 9.837-9.681-1.059-.192-2.16-.303-3.3-.303-10.095 0-18.06 7.488-18.06 16.41 0 9.516 7.968 16.98 17.898 16.98 10.107 0 18.066-7.47 18.066-16.98 0-3.297-1.089-6.402-2.961-8.958.255.771.408 1.626.408 2.532" fill="#fff"/><path d="m107.247 92.526c0 5.409-4.92 9.744-10.947 9.744-6.042 0-10.944-4.338-10.944-9.744 0-5.043 4.314-9.198 9.84-9.681-1.059-.192-2.16-.303-3.3-.303-10.095 0-18.06 7.488-18.06 16.407 0 9.516 7.968 16.983 17.898 16.983 10.107 0 18.066-7.47 18.066-16.983 0-3.294-1.089-6.399-2.961-8.955.252.771.408 1.623.408 2.532" fill="#fff"/></svg>

<?xml version="1.0" encoding="utf-8"?>
<svg id="svg3336" version="1.1" xmlns="http://www.w3.org/2000/svg">
  <g>
    <path d="M 552.813 65.277 L 548.328 83.757 L 544.188 63.294 L 488.736 51.087 L 489.126 81.921 L 497.481 83.793 L 496.878 89.355 C 496.77 89.313 496.704 89.247 496.644 89.199 C 486.285 83.733 473.442 83.175 461.355 87.738 C 457.302 89.289 453.537 91.329 450.123 93.807 L 441.759 41.001 L 404.88 41.001 L 403.866 47.073 L 365.052 47.073 L 360.618 74.22 L 357.399 70.242 C 347.994 58.689 334.359 52.323 319.254 52.008 L 352.209 34.293 L 329.229 0 L 287.709 47.841 L 294.876 56.58 C 288.384 59.232 282.714 62.889 278.016 67.308 L 242.415 35.724 L 229.968 59.58 L 230.448 36.654 L 174.789 54.435 L 176.217 84.336 L 185.685 81.879 L 187.086 97.035 C 176.265 92.175 163.26 92.295 151.2 97.392 C 147.624 98.949 144.294 100.863 141.222 103.089 C 143.307 93.858 142.815 84.756 139.296 76.638 C 135.141 67.047 127.83 59.121 118.869 54.12 C 112.584 49.935 105.096 47.325 97.257 46.44 C 78 43.071 54.873 46.53 32.112 56.226 C 23.742 59.796 15.939 63.846 8.898 68.331 L 0 73.974 L 5.373 83.046 L 22.05 111.231 C 22.05 111.231 27.153 119.868 27.186 119.862 L 36.204 115.431 L 37.461 114.852 L 78.9 207.336 L 82.896 216.225 L 92.148 213.243 L 114.57 206.061 L 124.395 202.941 L 121.803 192.939 L 109.896 147.228 C 113.319 144.693 116.517 142.002 119.469 139.188 C 118.803 144.651 119.151 150.18 120.657 155.472 C 123.768 166.554 131.025 175.305 141.096 180.156 C 151.971 185.382 165.24 185.397 177.516 180.189 C 183.675 177.579 189.15 173.766 193.788 169.23 L 195.48 187.434 L 234.744 181.653 L 234.681 146.448 L 316.725 186.996 L 316.725 147.735 C 320.016 147.459 323.376 146.94 326.754 146.109 C 335.79 143.928 343.524 140.934 350.394 136.818 L 346.947 157.902 L 391.182 164.865 L 393.609 148.947 L 405.165 170.289 L 412.227 156.681 L 414.807 179.025 L 464.961 187.866 L 462.3 170.994 C 469.167 171.771 476.403 170.85 483.393 168.213 C 485.049 167.601 486.681 166.854 488.247 166.056 L 486.249 184.008 L 519.627 188.718 L 519.876 202.407 L 554.682 213.333 L 600 76.746 L 552.813 65.277 Z M 356.85 85.575 L 359.148 83.127 L 356.37 100.35 L 349.119 93.819 L 356.85 85.575 Z M 327.456 15.228 L 339.609 31.737 L 304.866 48.96 L 302.466 45.312 L 327.456 15.228 Z M 97.41 142.518 L 111.27 195.702 L 88.836 202.866 L 42.801 100.059 C 40.299 101.376 35.673 103.584 31.428 105.666 L 14.757 77.505 C 21.387 73.272 28.656 69.522 36.39 66.252 C 58.092 57.024 78.798 54.27 95.358 57.195 C 101.217 57.855 107.421 59.583 112.854 63.186 C 120.306 67.386 126.006 73.359 129.294 80.967 C 137.313 99.495 123.918 126.159 97.41 142.518 Z M 200.55 133.053 C 200.292 140.973 197.382 148.905 192.516 155.619 C 187.884 162.108 181.416 167.466 173.805 170.742 C 154.341 178.989 134.88 170.742 129.681 152.265 C 124.644 134.4 136.362 113.13 155.22 105.006 C 167.265 99.921 179.349 101.127 188.004 107.01 C 193.35 110.634 197.427 116.088 199.332 122.919 C 199.572 123.645 199.728 124.407 199.89 125.151 C 200.433 127.755 200.652 130.422 200.55 133.053 Z M 306.444 170.652 L 225.036 129.939 L 225.183 172.596 L 204.123 175.47 L 202.656 157.884 C 209.157 146.736 211.536 133.596 208.143 121.551 C 206.28 114.927 202.839 109.179 198.162 104.574 L 195.141 68.721 L 185.685 71.172 L 185.268 62.109 L 219.084 52.038 L 221.157 86.916 L 246.072 51.915 L 270.426 75.108 L 236.367 110.991 L 268.365 123.648 C 271.938 130.422 277.392 136.176 284.232 140.415 C 290.847 144.498 298.422 146.913 306.438 147.705 L 306.444 170.652 L 306.444 170.652 Z M 264.174 111.666 L 252.852 107.295 L 263.406 97.038 C 262.956 101.745 263.187 106.671 264.174 111.666 Z M 352.764 122.331 C 344.952 128.793 336.048 133.005 324.282 135.849 C 321.711 136.437 319.191 136.866 316.725 137.085 C 298.05 138.918 282.384 130.344 276.438 116.436 C 275.697 114.75 275.127 113.046 274.695 111.228 C 271.944 99.513 274.293 89.043 280.08 80.841 C 281.748 78.447 283.725 76.266 285.945 74.304 C 291.396 69.438 298.356 65.904 306.267 64.002 C 324.057 59.712 339.723 65.142 349.329 76.929 L 315.429 113.01 C 317.727 113.445 321.384 112.842 324.081 112.197 C 332.154 110.226 336.672 105.942 340.653 101.271 L 354.201 113.46 L 358.305 117.168 C 356.526 119.007 354.657 120.744 352.764 122.331 Z M 424.683 170.484 L 417.309 121.635 L 406.881 148.584 L 391.266 114.903 L 391.089 114.903 L 384.918 153.906 L 358.893 149.376 L 362.553 127.611 C 363.534 126.69 364.5 125.763 365.451 124.785 L 373.887 116.1 L 365.688 108.756 L 374.4 56.925 L 400.656 56.925 L 407.229 92.805 L 414.594 51.222 L 433.377 51.222 L 441.171 101.883 C 431.253 113.181 426.435 128.37 429.75 142.266 C 432.312 153.036 438.933 161.712 448.422 166.779 C 449.376 167.259 450.366 167.736 451.386 168.147 L 452.379 174.714 L 424.683 170.484 Z M 489.537 154.569 C 486.669 156.612 483.51 158.349 480.114 159.6 C 473.412 162.153 466.743 162.684 460.803 161.505 C 456.663 160.686 452.886 159.072 449.601 156.735 C 444.378 152.955 440.529 147.375 438.834 140.367 C 436.857 131.946 438.678 122.955 443.208 115.08 C 445.467 111.231 448.362 107.613 451.791 104.496 C 455.613 101.07 460.044 98.262 464.976 96.366 C 476.451 92.085 487.77 93.561 495.738 99.291 C 498.669 101.367 501.102 104.01 503.019 107.085 C 504.471 109.512 505.602 112.188 506.286 115.107 C 508.725 125.22 505.821 136.047 499.44 144.771 C 496.71 148.491 493.38 151.833 489.537 154.569 Z M 548.139 200.61 L 528.894 194.877 L 527.217 123.924 L 517.539 178.659 L 496.542 175.308 L 498.045 159.549 C 511.755 147.963 519.024 129.69 515.04 113.127 C 513.291 105.795 509.52 99.411 504.204 94.554 L 505.977 75.969 L 498.039 73.857 L 498.57 63.933 L 534.741 71.202 L 546.906 128.88 L 559.38 77.169 L 586.899 83.25 L 548.139 200.61 Z" id="path3522" style="fill-opacity: 1; fill: rgb(255, 255, 255);"/>
    <path d="M 489.996 109.038 C 490.212 109.893 490.323 110.742 490.296 111.642 C 490.059 117.03 484.995 121.188 478.959 120.906 C 472.926 120.699 468.186 116.118 468.423 110.745 C 468.627 105.708 473.115 101.721 478.659 101.466 C 477.606 101.229 476.505 101.103 475.359 101.064 C 465.261 100.629 457.005 107.781 456.657 116.685 C 456.27 126.21 463.902 133.974 473.841 134.406 C 483.954 134.808 492.204 127.632 492.606 118.155 C 492.723 114.867 491.754 111.717 489.996 109.038" id="path3500" style="fill-opacity: 1; fill: rgb(255, 255, 255);"/>
    <path d="M 183.621 119.916 C 183.621 125.325 178.701 129.66 172.677 129.66 C 166.635 129.66 161.733 125.322 161.733 119.916 C 161.733 114.873 166.044 110.715 171.573 110.235 C 170.514 110.04 169.41 109.929 168.273 109.929 C 158.178 109.929 150.21 117.42 150.21 126.336 C 150.21 135.855 158.178 143.319 168.111 143.319 C 178.218 143.319 186.174 135.849 186.174 126.336 C 186.174 123.045 185.088 119.94 183.216 117.384 C 183.468 118.155 183.621 119.007 183.621 119.916" id="path3509" style="fill-opacity: 1; fill: rgb(255, 255, 255);"/>
    <path style="fill:#7d7f68" d="M 335.766 106.185 C 335.616 106.32 335.478 106.485 335.361 106.656 C 335.517 106.515 335.667 106.392 335.829 106.257 L 335.766 106.185 Z" id="path3414"/>
    <path style="fill:#7d7f68" d="M 252.852 107.295 L 252.969 107.343 L 252.852 107.295 Z" id="path3420"/>
    <path d="M 318.657 83.649 C 318.657 89.061 313.737 93.393 307.71 93.393 C 301.668 93.393 296.769 89.058 296.769 83.649 C 296.769 78.609 301.08 74.451 306.606 73.968 C 305.547 73.776 304.446 73.665 303.306 73.665 C 293.211 73.665 285.246 81.153 285.246 90.075 C 285.246 99.591 293.214 107.055 303.144 107.055 C 313.251 107.055 321.21 99.585 321.21 90.075 C 321.21 86.778 320.121 83.673 318.249 81.117 C 318.504 81.888 318.657 82.743 318.657 83.649" id="path3509-8" style="fill-opacity: 1; fill: rgb(255, 255, 255);"/>
    <path d="M 107.247 92.526 C 107.247 97.935 102.327 102.27 96.3 102.27 C 90.258 102.27 85.356 97.932 85.356 92.526 C 85.356 87.483 89.67 83.328 95.196 82.845 C 94.137 82.653 93.036 82.542 91.896 82.542 C 81.801 82.542 73.836 90.03 73.836 98.949 C 73.836 108.465 81.804 115.932 91.734 115.932 C 101.841 115.932 109.8 108.462 109.8 98.949 C 109.8 95.655 108.711 92.55 106.839 89.994 C 107.091 90.765 107.247 91.617 107.247 92.526" id="path3509-2" style="fill-opacity: 1; fill: rgb(255, 255, 255);"/>
  </g>
</svg>
